X:1
T:Master of the Dance
T:A Tribute to Ted Sannella
C:David A Kaynor August 1995
M:4/4
L:1/8
K:D
"D"D2DEF3E|DEFD "A"EA, (3.A,.A,.A,|"D"D2DEF2ED|"A"CEAB AGFE|
"D"D2DEF3E|DEFD "A"EA, (3.A,.A,.A,|"D"D2DEF2ED|"A"CEAB A4:|
"A"Acec "D"Adfd|"A"ecAG "D"FADF|"Em"G2BGE3D|"A"CDEC A,4|
"A"Acec "D"Adfd|"A"ecAG "D"FADF|"Em"G2BGE3D|"A"CDEC "D"D4:|

